www/assets/icons/wifi_tethering.svg

<svg width="24" height="24" viewBox="0 0 24 24" xmlns="http://www.w3.org/2000/svg" fill='currentColor'><path d="M12 10.6748C10.9 10.6748 10 11.5748 10 12.6748C10 13.7748 10.9 14.6748 12 14.6748C13.1 14.6748 14 13.7748 14 12.6748C14 11.5748 13.1 10.6748 12 10.6748ZM18 12.6748C18 9.3648 15.31 6.6748 12 6.6748C8.69 6.6748 6 9.3648 6 12.6748C6 14.8948 7.21 16.8248 9 17.8648L10 16.1248C8.81 15.4248 8 14.1548 8 12.6748C8 10.4648 9.79 8.6748 12 8.6748C14.21 8.6748 16 10.4648 16 12.6748C16 14.1548 15.19 15.4248 14 16.1248L15 17.8648C16.79 16.8248 18 14.8948 18 12.6748ZM12 2.6748C6.48 2.6748 2 7.1548 2 12.6748C2 16.3748 4.01 19.5948 6.99 21.3248L7.99 19.5948C5.61 18.2048 4 15.6348 4 12.6748C4 8.2548 7.58 4.6748 12 4.6748C16.42 4.6748 20 8.2548 20 12.6748C20 15.6348 18.39 18.2048 16 19.5948L17 21.3248C19.99 19.5948 22 16.3748 22 12.6748C22 7.1548 17.52 2.6748 12 2.6748Z"/></svg>

<svg xmlns="http://www.w3.org/2000/svg" width="24" height="24" viewBox="0 0 24 24" fill='currentColor'><path d="M12 10.675c-1.1 0-2 .9-2 2s.9 2 2 2 2-.9 2-2-.9-2-2-2m6 2c0-3.31-2.69-6-6-6s-6 2.69-6 6c0 2.22 1.21 4.15 3 5.19l1-1.74c-1.19-.7-2-1.97-2-3.45 0-2.21 1.79-4 4-4s4 1.79 4 4c0 1.48-.81 2.75-2 3.45l1 1.74c1.79-1.04 3-2.97 3-5.19m-6-10c-5.52 0-10 4.48-10 10 0 3.7 2.01 6.92 4.99 8.65l1-1.73C5.61 18.205 4 15.635 4 12.675c0-4.42 3.58-8 8-8s8 3.58 8 8c0 2.96-1.61 5.53-4 6.92l1 1.73c2.99-1.73 5-4.95 5-8.65 0-5.52-4.48-10-10-10"/></svg>
